dist/images/github.svg

<svg width="18" height="19.37" viewBox="0 0 21 22" fill="none" xmlns="http://www.w3.org/2000/svg">
<path d="M8.52149 19.5059C8.52147 19.3592 8.48919 19.2144 8.42695 19.0816C8.3647 18.9488 8.27401 18.8313 8.16131 18.7375C8.0486 18.6436 7.91663 18.5757 7.77476 18.5386C7.63289 18.5014 7.48458 18.4959 7.34034 18.5225C6.03126 18.7627 4.37843 18.7988 3.93897 17.5645C3.55578 16.6085 2.92105 15.774 2.10206 15.1495C2.04363 15.1177 1.98794 15.0811 1.93556 15.0401C1.86389 14.851 1.73658 14.6881 1.57043 14.5729C1.40428 14.4576 1.2071 14.3955 1.00489 14.3946H1.00001C0.735613 14.3945 0.481942 14.4991 0.294525 14.6856C0.107109 14.8721 0.00121216 15.1253 1.4021e-05 15.3897C-0.00389598 16.2051 0.811014 16.7276 1.14161 16.9043C1.53146 17.296 1.84477 17.7571 2.06544 18.2637C2.4297 19.2872 3.48829 20.8399 6.53126 20.6397C6.53226 20.6749 6.53321 20.7081 6.5337 20.7383L6.53809 21.0059C6.53809 21.2711 6.64345 21.5255 6.83099 21.713C7.01852 21.9006 7.27288 22.0059 7.53809 22.0059C7.80331 22.0059 8.05766 21.9006 8.2452 21.713C8.43274 21.5255 8.53809 21.2711 8.53809 21.0059L8.53321 20.6876C8.52833 20.4981 8.52149 20.2236 8.52149 19.5059ZM19.1885 4.37987C19.2202 4.25487 19.2515 4.1162 19.2788 3.95995C19.4406 2.84554 19.2996 1.70814 18.8706 0.666948C18.8165 0.531211 18.7333 0.408955 18.627 0.308751C18.5206 0.208547 18.3936 0.132819 18.2549 0.0868779C17.8989 -0.0332421 16.5845 -0.269572 14.0708 1.33688C11.9814 0.845172 9.80629 0.845172 7.71682 1.33688C5.21339 -0.246042 3.90577 -0.0312421 3.55323 0.0820379C3.4111 0.126118 3.28063 0.201445 3.17138 0.302496C3.06214 0.403547 2.97689 0.527762 2.92188 0.666038C2.48419 1.72722 2.34472 2.88781 2.51856 4.02248C2.54298 4.15041 2.56934 4.26858 2.59669 4.37697C1.76826 5.48041 1.327 6.82633 1.34132 8.20607C1.33862 8.5139 1.35281 8.82166 1.3838 9.12794C1.7178 13.7305 4.7178 15.1123 6.80811 15.5869C6.76466 15.7119 6.72511 15.8457 6.68995 15.9873C6.62729 16.2446 6.66922 16.5163 6.80655 16.7427C6.94388 16.9691 7.1654 17.1318 7.42252 17.1952C7.67965 17.2585 7.95141 17.2173 8.1782 17.0806C8.40499 16.9439 8.56831 16.7228 8.63233 16.4658C8.69596 16.1326 8.85905 15.8266 9.10011 15.5879C9.24587 15.4603 9.3514 15.2931 9.40387 15.1066C9.45633 14.9201 9.45348 14.7224 9.39564 14.5375C9.33781 14.3526 9.22748 14.1885 9.0781 14.0652C8.92872 13.9419 8.74671 13.8646 8.55421 13.8428C5.10011 13.4483 3.60059 12.041 3.37501 8.94436C3.35003 8.69909 3.33878 8.45261 3.34132 8.20608C3.32528 7.22273 3.65015 6.26416 4.26075 5.49319C4.32211 5.41281 4.38746 5.33556 4.45655 5.26174C4.57899 5.12474 4.6613 4.95666 4.69447 4.77594C4.72763 4.59523 4.71036 4.40887 4.64455 4.23733C4.57709 4.05686 4.52514 3.87096 4.48928 3.68166C4.40782 3.14337 4.43454 2.59425 4.56788 2.06642C5.43702 2.31189 6.255 2.71146 6.98288 3.2461C7.10325 3.32627 7.23946 3.37963 7.38226 3.40254C7.52505 3.42546 7.67111 3.4174 7.81052 3.37892C9.83163 2.83042 11.9624 2.83076 13.9834 3.37992C14.1235 3.41836 14.2704 3.42596 14.4138 3.40219C14.5571 3.37842 14.6937 3.32384 14.8139 3.24223C15.5384 2.70537 16.353 2.30223 17.2192 2.0518C17.352 2.56695 17.3817 3.10325 17.3066 3.62992C17.2704 3.83745 17.2138 4.04092 17.1377 4.23735C17.0719 4.40889 17.0546 4.59525 17.0878 4.77596C17.1209 4.95668 17.2032 5.12476 17.3257 5.26176C17.4028 5.34867 17.48 5.44242 17.5493 5.53031C18.1556 6.28823 18.475 7.23578 18.4512 8.20607C18.453 8.46568 18.4404 8.72519 18.4136 8.98341C18.1934 12.0391 16.688 13.4473 13.2178 13.8428C13.0252 13.8647 12.8432 13.9421 12.6938 14.0656C12.5445 14.189 12.4342 14.3532 12.3764 14.5382C12.3186 14.7232 12.3159 14.921 12.3684 15.1075C12.4209 15.294 12.5265 15.4613 12.6724 15.5889C12.921 15.8339 13.0845 16.1522 13.1387 16.4971C13.2063 16.7648 13.2373 17.0404 13.231 17.3164V19.6504C13.2212 20.2979 13.2212 20.7832 13.2212 21.0059C13.2212 21.2711 13.3265 21.5254 13.5141 21.713C13.7016 21.9005 13.956 22.0059 14.2212 22.0059C14.4864 22.0059 14.7408 21.9005 14.9283 21.713C15.1158 21.5254 15.2212 21.2711 15.2212 21.0059C15.2212 20.7891 15.2212 20.3135 15.231 19.666V17.3164C15.239 16.8742 15.1869 16.433 15.0762 16.0049C15.0445 15.8643 15.0057 15.7255 14.96 15.5889C16.4812 15.3362 17.8634 14.5518 18.8606 13.3755C19.8577 12.1992 20.4051 10.7072 20.4053 9.16506C20.4382 8.84648 20.4535 8.52633 20.4512 8.20607C20.4734 6.82484 20.0284 5.47657 19.1885 4.37987Z" fill="black"/>
</svg>

<svg width="18" height="19.37" viewBox="0 0 21 22" fill="none" xmlns="http://www.w3.org/2000/svg"><path d="M8.521 19.506a1 1 0 00-1.18-.983c-1.31.24-2.963.276-3.402-.959a5.707 5.707 0 00-1.837-2.415 1.204 1.204 0 01-.166-.109 1 1 0 00-.931-.645H1a1 1 0 00-1 .995c-.004.815.811 1.338 1.142 1.514.39.392.703.853.923 1.36.365 1.023 1.423 2.576 4.466 2.376l.003.098.004.268a1 1 0 102 0l-.005-.318c-.005-.19-.012-.464-.012-1.182zM19.19 4.38c.031-.125.063-.264.09-.42a6.277 6.277 0 00-.41-3.293 1.002 1.002 0 00-.616-.58c-.356-.12-1.67-.357-4.184 1.25a13.869 13.869 0 00-6.354 0C5.213-.246 3.906-.031 3.553.082a.998.998 0 00-.631.584 6.3 6.3 0 00-.403 3.356c.024.128.05.247.078.355a6.27 6.27 0 00-1.256 3.83 8.56 8.56 0 00.043.92c.334 4.603 3.334 5.985 5.424 6.46a4.592 4.592 0 00-.118.4 1 1 0 001.942.479 1.68 1.68 0 01.468-.878 1 1 0 00-.546-1.745C5.1 13.448 3.601 12.04 3.375 8.944a6.614 6.614 0 01-.034-.738 4.258 4.258 0 011.116-2.944 1 1 0 00.188-1.025 3.388 3.388 0 01-.156-.555 4.094 4.094 0 01.079-1.616 7.55 7.55 0 012.415 1.18 1.009 1.009 0 00.828.133 11.777 11.777 0 016.172 0 1.006 1.006 0 00.83-.137 7.573 7.573 0 012.406-1.19c.133.515.163 1.051.088 1.578a3.207 3.207 0 01-.17.607 1 1 0 00.189 1.025c.077.087.154.18.223.268.607.758.926 1.706.902 2.676.002.26-.01.52-.037.777-.22 3.056-1.726 4.464-5.196 4.86a1 1 0 00-.546 1.746c.249.245.412.563.467.908a3.1 3.1 0 01.092.82v2.333c-.01.648-.01 1.133-.01 1.356a1 1 0 102 0c0-.217 0-.692.01-1.34v-2.35a4.886 4.886 0 00-.155-1.311c-.032-.14-.07-.28-.116-.416a6.513 6.513 0 005.445-6.424c.033-.319.048-.639.046-.959A6.131 6.131 0 0019.19 4.38z" fill="#000"/></svg>
